X:1
T:Final Fantasy VI - Phantom Forest
T:Final Fantasy VI - Phantom Forest (piano reduction)
T:Original title in Japanese: 迷いの森 (Mayoi no Mori)
T:Nobuo Uematsu
C:Nobuo Uematsu
%%score { ( 1 3 ) | 2 }
L:1/8
Q:1/4=121
M:3/4
K:C
V:1 treble nm="Piano" snm="Pno."
V:3 treble 
V:2 bass 
V:1
 z6 | z6 | z6 | z6 |:!f! A2 c'2 b2 | a2 g2 f2 | e6- | e2 c2 d2 | e6- | e6- | e6- | e6 | A2 c'2 b2 | %13
 a2 g2 f2 | e6- | e2 c2 d2 | e4 f2 | d6- | d6 | z6 |!8va(! e'4 f'2 | d'6- | d'6 | %23
 d'2 c'2 _b2!8va)! | a6- | a6 | z6 | z6 | [CA]2 [DB]2 [Ec]2 | [Fd]2 [Ec]2 [DB]2 | [CA]6- | [CA]6 | %32
 a2 b2 c'2 | d'2 c'2 b2 | a6 | a2 g2 a2 | b4 c'2 | g2 B2 c2 | a6 | g6 | z2 B2 c2 | G6 | z2 ^F2 G2 | %43
 E6 | [CA]2 [DB]2 [Ec]2 | [Fd]2 [Ec]2 [DB]2 | [CA]6- | [CA]6 | [CA]2 B2 c2 | [Fd]2 e2 f2 | %50
 [_B_eg]4 _b2 | [_B_ea]4 _b2 | [Acg]6- | [Acg]2 _b2 af | g6- | g6- | g6 | [GAc^d]6 :| %58
V:2
 A,,E, [A,C]E, [A,C]E, | A,,F, [A,C]F, [A,C]F, | A,,^F, [A,C]F, [A,C]F, | A,,F, [A,C]F, [A,C]F, |: %4
 A,,E, [A,C]E, [A,C]E, | A,,F, [A,C]F, [A,C]F, | A,,^F, [A,C]F, [A,C]F, | A,,F, [A,C]F, [A,C]F, | %8
 A,,E, [A,C]E, [A,C]E, | A,,F, [A,C]F, [A,C]F, | A,,^F, [A,C]F, [A,C]F, | A,,F, [A,C]F, [A,C]F, | %12
 A,,E, [A,C]E, [A,C]E, | A,,F, [A,C]F, [A,C]F, | A,,^F, [A,C]F, [A,C]F, | A,,F, [A,C]F, [A,C]F, | %16
 _B,,F, [_B,D]F, [B,D]F, | _B,,E, [_B,D]E, [B,D]E, | _B,,F, [_B,D]F, [B,D]F, | %19
 _B,,G, [_B,D]G, [B,D]G, | _B,,F, [_B,D]F, [B,D]F, | _B,,E, [_B,D]E, [B,D]E, | %22
 _B,,F, [_B,D]F, [B,D]F, | _B,,G, [_B,D]G, [B,D]G, | A,,E, [A,C]E, [A,C]E, | %25
 A,,F, [A,C]F, [A,C]F, | A,,^F, [A,C]F, [A,C]F, | A,,F, [A,C]F, [A,C]F, | F,,C, [F,A,]C, [F,A,]C, | %29
 F,,C, [F,A,]C, [F,A,]C, | F,,C, [F,A,]C, [F,A,]C, | F,,C, [F,A,]C, [F,A,]C, | %32
 F,,C, [F,A,]C, [F,A,]C, | F,,C, [F,A,]C, [F,A,]C, | F,,C, [F,A,]C, [F,A,]C, | %35
 F,,C, [F,A,]C, [F,A,]F,, | C,G, [CE]G, [CE]G, | C,A, [CE]A, [CE]A, | C,^A, [CE]A, [CE]A, | %39
 C,B, [CE]B, [CE]B, | C,G, [CE]G, [CE]G, | C,A, [CE]A, [CE]A, | C,B, [CE]B, [CE]B, | %43
 C,_B, [CE]B, [CE]B, | F,,C, [F,A,]C, [F,A,]C, | F,,C, [F,A,]C, [F,A,]C, | %46
 F,,C, [F,A,]C, [F,A,]C, | F,,C, [F,A,]C, [F,A,]C, | F,,C, [F,A,]C, [F,A,]C, | %49
 F,,C, [F,A,]C, [F,A,]C, | _B,,_E, [G,_B,]E, [G,B,]E, | _B,,_E, [G,_B,]E, [G,B,]E, | %52
 C,F, [A,C]F, [A,C]F, | C,F, [A,C]F, [A,C]F, | G,,D, [G,B,]D, [G,B,]D, | G,,^D, [G,C]D, [G,C]D, | %56
 G,,E, [G,C]E, [G,C]E, | G,,^D, [G,C]D, [G,C]D, :| %58
V:3
 x6 | x6 | x6 | x6 |: x6 | x6 | x6 | x6 | x6 | x6 | x6 | x6 | x6 | x6 | x6 | x6 | x6 | x6 | x6 | %19
 x6 |!8va(! x6 | x6 | x6 | x6!8va)! | x6 | x6 | x6 | x6 | x6 | x6 | x6 | x6 | x6 | x6 | x6 | x6 | %36
 x6 | x6 | x6 | x6 | x6 | x6 | x6 | x6 | x6 | x6 | x6 | x6 | x6 | x6 | x6 | x6 | x6 | x6 | [GBd]6 | %55
 [GA^d]6 | [Gce]6 | x6 :| %58

